symbols/web/phone_locked/materialsymbolsrounded/phone_locked_wght500gradN25_40px.svg

<svg xmlns="http://www.w3.org/2000/svg" height="40" width="40"><path d="M26.417 16.542q-.667 0-1.084-.438-.416-.437-.416-1.062V9.583q0-.583.354-1 .354-.416.937-.458h.5V6.458q0-1.375.959-2.375.958-1 2.333-1 1.417 0 2.354 1 .938 1 .938 2.375v1.667h.5q.583.042.958.458.375.417.375 1v5.459q0 .625-.437 1.062-.438.438-1.063.438Zm1.916-8.459h3.375V6.375q0-.708-.5-1.208t-1.166-.5q-.709 0-1.209.5-.5.5-.5 1.208Zm4.542 26.875q-5.083 0-10.104-2.437-5.021-2.438-8.979-6.396-3.959-3.958-6.417-8.979-2.458-5.021-2.458-10.104 0-.875.583-1.479.583-.605 1.5-.605h5.917q.75 0 1.291.438.542.437.709 1.271l1.125 5.166q.083.667-.063 1.229-.146.563-.562.938l-4.125 4.042q2.083 3.458 4.75 6.083 2.666 2.625 6 4.542l4.041-4.042q.459-.5 1.021-.687.563-.188 1.229-.063l4.875 1.083q.834.167 1.292.73.458.562.458 1.395v5.834q0 .875-.583 1.458t-1.5.583ZM9.833 15.292l3.125-3.125-.833-4.209H7.958q.042 1.584.5 3.396.459 1.813 1.375 3.938Zm22.125 16.625V27.75L28 26.917l-3.167 3.25q1.584.708 3.438 1.166 1.854.459 3.687.584Zm-7.125-1.75Zm-15-14.875Z"/></svg>

<svg xmlns="http://www.w3.org/2000/svg" height="40" width="40"><path d="M26.417 16.542Q25.75 16.542 25.333 16.104Q24.917 15.667 24.917 15.042V9.583Q24.917 9 25.271 8.583Q25.625 8.167 26.208 8.125H26.708V6.458Q26.708 5.083 27.667 4.083Q28.625 3.083 30 3.083Q31.417 3.083 32.354 4.083Q33.292 5.083 33.292 6.458V8.125H33.792Q34.375 8.167 34.75 8.583Q35.125 9 35.125 9.583V15.042Q35.125 15.667 34.688 16.104Q34.25 16.542 33.625 16.542ZM28.333 8.083H31.708V6.375Q31.708 5.667 31.208 5.167Q30.708 4.667 30.042 4.667Q29.333 4.667 28.833 5.167Q28.333 5.667 28.333 6.375ZM32.875 34.958Q27.792 34.958 22.771 32.521Q17.75 30.083 13.792 26.125Q9.833 22.167 7.375 17.146Q4.917 12.125 4.917 7.042Q4.917 6.167 5.5 5.563Q6.083 4.958 7 4.958H12.917Q13.667 4.958 14.208 5.396Q14.75 5.833 14.917 6.667L16.042 11.833Q16.125 12.5 15.979 13.062Q15.833 13.625 15.417 14L11.292 18.042Q13.375 21.5 16.042 24.125Q18.708 26.75 22.042 28.667L26.083 24.625Q26.542 24.125 27.104 23.938Q27.667 23.75 28.333 23.875L33.208 24.958Q34.042 25.125 34.5 25.688Q34.958 26.25 34.958 27.083V32.917Q34.958 33.792 34.375 34.375Q33.792 34.958 32.875 34.958ZM9.833 15.292 12.958 12.167Q12.958 12.167 12.958 12.167Q12.958 12.167 12.958 12.167L12.125 7.958Q12.125 7.958 12.125 7.958Q12.125 7.958 12.125 7.958H7.958Q7.958 7.958 7.958 7.958Q7.958 7.958 7.958 7.958Q8 9.542 8.458 11.354Q8.917 13.167 9.833 15.292ZM31.958 31.917Q31.958 31.917 31.958 31.917Q31.958 31.917 31.958 31.917V27.75Q31.958 27.75 31.958 27.75Q31.958 27.75 31.958 27.75L28 26.917Q28 26.917 28 26.917Q28 26.917 28 26.917L24.833 30.167Q26.417 30.875 28.271 31.333Q30.125 31.792 31.958 31.917ZM24.833 30.167Q24.833 30.167 24.833 30.167Q24.833 30.167 24.833 30.167Q24.833 30.167 24.833 30.167Q24.833 30.167 24.833 30.167Q24.833 30.167 24.833 30.167Q24.833 30.167 24.833 30.167Q24.833 30.167 24.833 30.167Q24.833 30.167 24.833 30.167ZM9.833 15.292Q9.833 15.292 9.833 15.292Q9.833 15.292 9.833 15.292Q9.833 15.292 9.833 15.292Q9.833 15.292 9.833 15.292Q9.833 15.292 9.833 15.292Q9.833 15.292 9.833 15.292Q9.833 15.292 9.833 15.292Q9.833 15.292 9.833 15.292Z"/></svg>
